X:178
T:Major MacKay
C:Joe Buchanan's Scottish Tome - Page 269.2-270.1
I:269 2
Z:Carl Allison
R:Jig
L:1/8
M:6/8
K:A
EFG AGA | F2 B B2 A | G2 e efe | c2 A A2 G |
EFG AGA | F2 B B2 A | G2 e dcB | A3 A2 E |
EFG AGA | F2 B B2 A | G2 e efg | aec AEB, |
A,CE AGA | F2 B B2 A | G2 e dcB | A3 A2 B |
c2 c ABc | d2 d d2 c | B2 B GAB | c2 c cec |
A2 A ABc | d2 F B2 A | G2 e dcB | A3 A2 B |
c2 c ABc | d2 d d2 c | B2 B GAB | c2 c cec |
A2 A ABc | d2 F B2 A | G2 e dcB | ABA =GFE |]

